X: 061524
T: Father Ahearn's
S: B.Breathnach: "Ceol Rince na hEireann" II/186 (gan ainm)
Z: B.Black
L: 1/8
M: 4/4
R: reel
K: G
dc|BGAF DG G2|ABcA defg|a2 ge fffe|dfed (3cBA dc|
BGAF DG G2|ABcA defg|a2 ge fffe|1 dcAF G2 :|2 dcAF G3 ||
B|defg a2 fa|gfde dc A2|defg ad c2|fdfa gggf|
defg a2 fa|gfde dcAG|(3FED (3EFG Agfe|dcAF G3 :|
